frontend/public/svg/interface/grid-2.svg

<svg width="158" height="157" viewBox="0 0 158 157" fill="none" xmlns="http://www.w3.org/2000/svg">
<g clip-path="url(#clip0)">
<path d="M1.53782 102.414C1.73245 110.42 1.92749 118.7 2.00728 126.84C2.06113 132.42 3.28624 137.116 5.75413 141.198C10.8144 149.569 17.9555 154.168 26.9687 154.864C29.7629 155.023 32.5638 155.014 35.357 154.839C36.9756 154.77 38.6498 154.698 40.2879 154.697C45.3515 154.697 50.7436 154.75 57.252 154.881C69.5942 155.128 81.8227 155.409 93.1993 155.677C99.3405 155.821 105.482 155.981 112.305 156.16L122.263 156.42H122.279C122.311 156.42 122.342 156.418 122.373 156.414C123.022 156.321 123.823 156.225 124.737 156.116C127.182 155.825 130.531 155.424 133.789 154.741C147.316 151.908 158.018 138.155 157.645 124.085C157.418 115.527 157.305 107.663 157.301 100.047C157.298 92.8879 157.34 85.6079 157.381 78.5677C157.417 72.461 157.453 66.1471 157.46 59.9358C157.46 58.6512 157.348 57.3569 157.24 56.1054C157.061 54.5128 157 52.9091 157.059 51.3075C157.658 41.8744 156.167 32.5762 154.724 24.6024C153.478 17.7192 150.94 12.5878 146.965 8.91292C140.631 3.05763 133.266 0.183417 125.076 0.322176C123.117 0.359309 121.139 0.52346 119.226 0.682417C117.332 0.838765 115.373 1.00164 113.452 1.03812C105.005 1.19838 96.414 1.28307 88.1053 1.36385C69.4554 1.54821 50.1703 1.73913 31.2142 2.79709C28.8541 2.87463 26.5038 3.13816 24.1849 3.58532C11.9525 6.22631 4.46285 13.3747 1.92555 24.8337C1.49323 27.2266 1.33162 29.661 1.44405 32.0903C1.45054 32.8264 1.45693 33.5606 1.44785 34.2902C1.4046 37.9609 1.35215 41.6307 1.29073 45.2997C1.13438 55.6037 0.971992 66.2585 1.05568 76.7404C1.1264 85.2992 1.3354 94 1.53782 102.414ZM148.724 57.3152V94.4599L111.09 95.2573L109.943 57.9392L148.724 57.3152ZM110.966 105.78C112.769 105.763 114.556 105.75 116.328 105.74C120.925 105.712 125.267 105.684 129.7 105.574C134.148 105.464 138.511 105.275 143.129 105.076C144.961 104.996 146.81 104.918 148.676 104.841C148.682 104.882 148.688 104.922 148.694 104.963C148.785 105.49 148.84 106.024 148.856 106.56C148.867 108.449 148.921 110.374 148.973 112.233C149.189 116.665 149.128 121.106 148.788 125.53C147.872 134.79 143.235 141.453 135.007 145.334C130.46 147.479 116.266 149.243 110.966 147.953L110.966 105.78ZM143.938 21.8605C145.056 25.3225 145.975 28.8463 146.692 32.4141C147.325 35.5971 147.78 38.8816 148.219 42.0555C148.349 43.0053 148.482 43.955 148.619 44.9044C148.709 45.6292 148.76 46.3583 148.775 47.0887C148.781 47.2496 148.786 47.4143 148.794 47.5765L109.3 48.3753L107.576 9.38783C109.522 9.45297 111.448 9.50183 113.317 9.54613C118.442 9.66665 123.277 9.78189 128.114 10.3278C131.083 10.6614 134.032 12.2132 136.884 13.7154L137.381 13.9759C138.94 14.7885 140.322 15.904 141.448 17.2575C142.573 18.611 143.421 20.1756 143.939 21.8605H143.938ZM60.2602 49.6632C60.2277 49.4619 60.195 49.2678 60.1626 49.0769C60.0383 48.4571 59.9617 47.8284 59.9338 47.1968C59.8819 42.8537 59.8392 38.5107 59.8046 34.1677C59.7613 29.3743 59.7125 24.5816 59.6589 19.7896C59.631 17.6046 59.5401 15.4248 59.4447 13.1167C59.4084 12.2412 59.3714 11.3467 59.337 10.4268L100.69 9.69003L101.239 48.6215L60.2602 49.6632ZM60.3463 123.713C60.5721 118.175 60.8051 112.456 60.8829 106.751C74.0395 105.748 86.9213 105.774 100.552 105.8L102.174 105.804L101.366 147.622L59.8059 146.215C59.7352 138.748 60.0465 131.107 60.3475 123.71L60.3463 123.713ZM61.0597 96.4299L60.5478 59.0676C64.9386 58.4859 95.1969 57.8233 101.578 58.4246C102.172 67.5145 102.167 76.4752 102.162 85.9506C102.162 88.961 102.162 91.985 102.177 95.024L61.0597 96.4299ZM47.7138 10.9279C48.4632 10.9279 49.2237 10.9415 50.0042 10.9552C50.6529 10.9669 51.3108 10.9787 51.9745 10.9826C52.4377 12.2321 52.2917 13.5708 52.1379 14.9818C52.0731 15.5636 52.0085 16.1648 51.989 16.7648C51.7484 23.7353 51.4658 30.8252 51.1933 37.6804C51.0636 40.9351 50.9357 44.1894 50.8094 47.4436C50.7867 48.0358 50.7909 48.6105 50.7973 49.3329C50.7973 49.5284 50.8018 49.7277 50.803 49.9427C36.6782 50.5596 23.2669 50.912 9.85511 51.0175C9.8348 50.1141 9.81158 49.2136 9.78608 48.3159C9.57005 40.2777 9.36601 32.6857 12.1511 25.2689C14.4756 19.0801 18.5996 15.2287 24.7589 13.4906C30.2734 11.9336 36.0428 11.5761 41.6267 11.2288C42.7665 11.1578 43.9067 11.0874 45.0459 11.0066C45.9302 10.9473 46.8134 10.9279 47.7138 10.9279ZM10.2086 99.8018V59.1646H50.9418C51.49 71.6076 51.51 84.137 51.002 97.4246L10.2086 99.8018ZM10.1149 108.118V107.527H50.9811L49.5429 146.705C47.3189 146.654 45.107 146.637 42.9615 146.62C37.5548 146.576 32.4475 146.536 27.3216 146.003C20.0367 145.246 14.6709 140.964 11.8027 133.616C10.2824 129.636 9.62843 125.376 9.88489 121.122C10.0146 118.554 10.0445 115.944 10.0718 113.42C10.0822 112.417 10.0929 111.413 10.1105 110.41C10.1215 109.671 10.1187 108.935 10.1187 108.116L10.1149 108.118Z" fill="black"/>
</g>
<defs>
<clipPath id="clip0">
<rect width="157" height="157" fill="white" transform="translate(0.777344)"/>
</clipPath>
</defs>
</svg>

<svg xmlns="http://www.w3.org/2000/svg" width="158" height="157" fill="none" viewBox="0 0 158 157"><g clip-path="url(#a)"><path fill="#000" d="M1.538 102.414c.194 8.006.39 16.286.47 24.426.053 5.58 1.278 10.276 3.746 14.358 5.06 8.371 12.202 12.97 21.215 13.666 2.794.159 5.595.15 8.388-.025 1.619-.069 3.293-.141 4.93-.142 5.065 0 10.457.053 16.965.184 12.342.247 24.57.528 35.947.796 6.142.144 12.283.304 19.106.483l9.958.26h.016a1 1 0 0 0 .094-.006c.649-.093 1.45-.189 2.364-.298 2.445-.291 5.794-.692 9.052-1.375 13.527-2.833 24.229-16.586 23.856-30.656a919 919 0 0 1-.344-24.038c-.003-7.16.039-14.44.08-21.48.036-6.106.072-12.42.079-18.631 0-1.285-.112-2.58-.22-3.83a32 32 0 0 1-.181-4.799c.599-9.433-.892-18.73-2.335-26.705-1.246-6.883-3.784-12.014-7.759-15.69-6.334-5.854-13.699-8.729-21.889-8.59-1.959.037-3.937.201-5.85.36-1.894.157-3.853.32-5.774.356-8.447.16-17.038.245-25.347.326-18.65.184-37.935.375-56.89 1.433-2.36.078-4.711.341-7.03.788-12.232 2.641-19.722 9.79-22.26 21.249a32.4 32.4 0 0 0-.481 7.256c.007.736.013 1.47.004 2.2q-.065 5.505-.157 11.01c-.157 10.304-.319 20.959-.235 31.44.07 8.56.28 17.26.482 25.674m147.186-45.099V94.46l-37.634.797-1.147-37.318zm-37.758 48.465q2.704-.025 5.362-.04c4.597-.028 8.939-.056 13.372-.166 4.448-.11 8.811-.299 13.429-.498q2.748-.12 5.547-.235l.018.122q.137.792.162 1.597c.011 1.889.065 3.814.117 5.673.216 4.432.155 8.873-.185 13.297-.916 9.26-5.553 15.923-13.781 19.804-4.547 2.145-18.741 3.909-24.041 2.619zm32.972-83.92a96 96 0 0 1 2.754 10.554c.633 3.183 1.088 6.468 1.527 9.642q.195 1.425.4 2.848.134 1.088.156 2.185.008.242.019.488l-39.494.798-1.724-38.987c1.946.065 3.872.114 5.741.158 5.125.12 9.96.236 14.797.782 2.969.333 5.918 1.885 8.77 3.387l.497.26a13.3 13.3 0 0 1 4.067 3.283 13.3 13.3 0 0 1 2.491 4.602zM60.26 49.664l-.097-.586a12 12 0 0 1-.23-1.88 3272 3272 0 0 1-.128-13.03q-.066-7.19-.146-14.377c-.028-2.185-.119-4.365-.214-6.673a657 657 0 0 1-.108-2.69l41.353-.737.549 38.932zm.086 74.05c.226-5.538.46-11.257.537-16.962 13.157-1.003 26.038-.977 39.669-.951l1.622.004-.808 41.818-41.56-1.407c-.07-7.467.24-15.108.541-22.505zm.714-27.283-.512-37.362c4.39-.582 34.649-1.245 41.03-.643.594 9.09.589 18.05.584 27.526 0 3.01 0 6.034.015 9.073zM47.714 10.928c.75 0 1.51.013 2.29.027q.975.02 1.97.028c.464 1.25.318 2.588.164 3.999a23 23 0 0 0-.149 1.783c-.24 6.97-.523 14.06-.796 20.915q-.194 4.883-.384 9.764a40 40 0 0 0-.012 1.889c0 .195.005.395.006.61-14.125.617-27.536.969-40.948 1.075q-.03-1.356-.069-2.702c-.216-8.038-.42-15.63 2.365-23.047C14.476 19.08 18.6 15.229 24.76 13.49c5.514-1.557 11.284-1.915 16.868-2.262 1.14-.071 2.28-.142 3.419-.222.884-.06 1.767-.08 2.668-.08M10.209 99.802V59.165h40.733c.548 12.443.568 24.972.06 38.26zm-.094 8.316v-.591H50.98l-1.438 39.178c-2.224-.051-4.436-.068-6.581-.085-5.407-.044-10.515-.084-15.64-.617-7.285-.757-12.651-5.039-15.52-12.387a30 30 0 0 1-1.917-12.494c.13-2.568.16-5.178.187-7.702.01-1.003.02-2.007.039-3.01.01-.739.008-1.475.008-2.294z"/></g><defs><clipPath id="a"><path fill="#fff" d="M.777 0h157v157h-157z"/></clipPath></defs></svg>
